X: 222
Q: "Slowish"
M: 6/8
L: 1/8
K: F
V: 1
|:\
!f!c>dc c!p!.a.g | !.f.e.d .c.B.A | !f!B>cB B!p!.g.f | .e.d.c BAG |\
!f!A>BA A!p!.f.e | .d.c.B AG^F | (GB).d (cA).f | (cf)c {c}BAG |
!f!ABc F2~F | {A}G>FG A2F | A>Bc cfe | fcA {c}BAG |\
|:\
ceg bag | {c'}b>ag a2f | f>ed cfa | [gB][fA][eG] [f2F2]z :|
V: 2 clef=bass middle=d
|:\
f3 a3 | c'2c f2g | =b2g c'2e | g2G c2z :|
f'c'a f2z | G3 f3 | e3 f3 | G2g cde |
fac' fac' | egc' fac' | fac' egc' | fac' gfe |\
fac' fac' | egc' fac' | b2g f2a | c'2c f3 ||
|:\
[a3f3] fac' | [a2f2][a_e] bfd | [=b3g3] gbd' | [=b2g2][bf] c'ge |\
c3 e2g | c'2c f2a | b2B a2f | c'2c f2z :|


